tools/download-figma-icons/icons/outlined-large/filter.svg

<svg width="64" height="64" viewBox="0 0 64 64" fill="none" xmlns="http://www.w3.org/2000/svg">
<path fill-rule="evenodd" clip-rule="evenodd" d="M56 13.2012H54.399H10.601H9V8.00024H56V13.2012ZM37.225 35.1002H32.335C31.507 35.1002 30.835 35.7722 30.835 36.6002C30.835 37.4292 31.507 38.1002 32.335 38.1002H36.475V56.0732L28.525 52.0982V36.6002C28.525 36.2762 28.42 35.9602 28.226 35.7002L13.601 16.2012H51.399L37.225 35.1002ZM57.5 5.00024H7.5C6.672 5.00024 6 5.67224 6 6.50024V14.7012C6 15.5292 6.672 16.2012 7.5 16.2012H9.85L25.525 37.1002V53.0252C25.525 53.5942 25.847 54.1132 26.354 54.3672L37.304 59.8422C37.516 59.9472 37.745 60.0002 37.975 60.0002C38.249 60.0002 38.522 59.9252 38.764 59.7762C39.205 59.5032 39.475 59.0192 39.475 58.5002V37.1002L55.15 16.2012H57.5C58.328 16.2012 59 15.5292 59 14.7012V6.50024C59 5.67224 58.328 5.00024 57.5 5.00024Z" fill="black"/>
</svg>

<svg xmlns="http://www.w3.org/2000/svg" width="64" height="64" fill="none" viewBox="0 0 64 64"><path fill="currentColor" fill-rule="evenodd" d="M56 13.201H9v-5.2h47zm-18.775 21.9h-4.89a1.5 1.5 0 0 0 0 3h4.14v17.972l-7.95-3.975V36.6c0-.324-.105-.64-.299-.9L13.601 16.201h37.798zM57.5 5h-50A1.5 1.5 0 0 0 6 6.5v8.2a1.5 1.5 0 0 0 1.5 1.5h2.35l15.675 20.9v15.924a1.5 1.5 0 0 0 .829 1.342l10.95 5.475a1.51 1.51 0 0 0 1.46-.066c.441-.273.711-.757.711-1.276V37.1L55.15 16.201h2.35a1.5 1.5 0 0 0 1.5-1.5v-8.2A1.5 1.5 0 0 0 57.5 5" clip-rule="evenodd"/></svg>
